dist/svgs/crypto-icons/icons/adc.svg

<?xml version="1.0" encoding="UTF-8" standalone="yes"?>
<svg xmlns="http://www.w3.org/2000/svg" xmlns:xlink="http://www.w3.org/1999/xlink" width="512px" height="512px" viewBox="0 0 384 384" version="1.1">
  <g id="surface1">
    <path style=" stroke:none;fill-rule:nonzero;fill:rgb(0%,0%,0%);fill-opacity:1;" d="M 230.230469 187.601562 L 176.097656 156.304688 C 171.363281 153.601562 165.609375 156.984375 165.609375 162.394531 L 165.609375 224.988281 C 165.609375 230.398438 171.53125 233.785156 176.097656 231.078125 L 230.230469 199.78125 C 234.96875 197.074219 234.96875 190.308594 230.230469 187.601562 Z M 230.230469 187.601562 "/>
    <path style=" stroke:none;fill-rule:nonzero;fill:rgb(0%,0%,0%);fill-opacity:1;" d="M 191.832031 100.820312 C 141.757812 100.820312 100.820312 141.589844 100.820312 191.832031 C 100.820312 241.902344 141.589844 282.839844 191.832031 282.839844 C 241.902344 282.839844 282.839844 242.070312 282.839844 191.832031 C 282.839844 141.589844 241.902344 100.820312 191.832031 100.820312 Z M 191.832031 272.183594 C 147.511719 272.183594 111.308594 236.152344 111.308594 191.660156 C 111.308594 147.339844 147.339844 111.140625 191.832031 111.140625 C 236.152344 111.140625 272.351562 147.171875 272.351562 191.660156 C 272.183594 236.152344 236.152344 272.183594 191.832031 272.183594 Z M 191.832031 272.183594 "/>
    <path style=" stroke:none;fill-rule:nonzero;fill:rgb(0%,0%,0%);fill-opacity:1;" d="M 191.832031 0 C 85.933594 0 0 85.933594 0 191.832031 C 0 297.726562 85.933594 383.660156 191.832031 383.660156 C 297.726562 383.660156 383.660156 297.726562 383.660156 191.832031 C 383.660156 85.933594 297.726562 0 191.832031 0 Z M 191.832031 313.460938 C 124.671875 313.460938 70.203125 258.988281 70.203125 191.832031 C 70.203125 124.671875 124.671875 70.203125 191.832031 70.203125 C 258.988281 70.203125 313.460938 124.671875 313.460938 191.832031 C 313.460938 258.988281 258.988281 313.460938 191.832031 313.460938 Z M 191.832031 313.460938 "/>
  </g>
</svg>

<svg xmlns="http://www.w3.org/2000/svg" viewBox="0 0 384 384"><path d="M230.23 187.602l-54.132-31.297c-4.735-2.703-10.489.68-10.489 6.09v62.593c0 5.41 5.922 8.797 10.489 6.09l54.132-31.297c4.739-2.707 4.739-9.472 0-12.18zm0 0"/><path d="M191.832 100.82c-50.074 0-91.012 40.77-91.012 91.012 0 50.07 40.77 91.008 91.012 91.008 50.07 0 91.008-40.77 91.008-91.008 0-50.242-40.938-91.012-91.008-91.012zm0 171.364c-44.32 0-80.523-36.032-80.523-80.524 0-44.32 36.03-80.52 80.523-80.52 44.32 0 80.52 36.032 80.52 80.52-.168 44.492-36.2 80.524-80.52 80.524zm0 0"/><path d="M191.832 0C85.934 0 0 85.934 0 191.832 0 297.727 85.934 383.66 191.832 383.66c105.895 0 191.828-85.933 191.828-191.828C383.66 85.934 297.727 0 191.832 0zm0 313.46c-67.16 0-121.629-54.472-121.629-121.628 0-67.16 54.469-121.629 121.629-121.629 67.156 0 121.629 54.469 121.629 121.629 0 67.156-54.473 121.629-121.629 121.629zm0 0"/></svg>
